icons/mouse-line.svg

<svg xmlns="http://www.w3.org/2000/svg" width="24" height="24" fill="none"><g clip-path="url(#a)"><g><path fill="#121212" d="M11.141 4C9.559 4 8.754 4.169 8.013 4.565C7.39502 4.89015 6.89015 5.39502 6.565 6.013C6.169 6.753 6 7.559 6 9.14V14.858C6 16.44 6.169 17.245 6.565 17.986C6.902 18.616 7.383 19.097 8.013 19.434C8.753 19.83 9.559 19.999 11.141 19.999H12.859C14.441 19.999 15.246 19.83 15.987 19.434C16.605 19.1089 17.1098 18.604 17.435 17.986C17.831 17.246 18 16.44 18 14.858V9.14C18 7.558 17.831 6.753 17.435 6.012C17.1098 5.39402 16.605 4.88915 15.987 4.564C15.247 4.169 14.441 4 12.86 4H11.14H11.141ZM11.141 2H12.859C14.873 2 15.953 2.278 16.931 2.801C17.8973 3.31249 18.6875 4.10269 19.199 5.069C19.722 6.047 20 7.127 20 9.141V14.859C20 16.873 19.722 17.953 19.199 18.931C18.6875 19.8973 17.8973 20.6875 16.931 21.199C15.953 21.722 14.873 22 12.859 22H11.14C9.126 22 8.046 21.722 7.068 21.199C6.10169 20.6875 5.31149 19.8973 4.8 18.931C4.278 17.953 4 16.873 4 14.859V9.14C4 7.126 4.278 6.046 4.801 5.068C5.31292 4.10192 6.10347 3.31206 7.07 2.801C8.047 2.278 9.127 2 11.141 2ZM11 6H13V11H11V6Z"/></g></g><defs><clipPath id="a"><rect width="24" height="24" fill="white"/></clipPath></defs></svg>

<svg width="24" height="24" fill="none" xmlns="http://www.w3.org/2000/svg"><g clip-path="url(#a)"><path d="M11.141 4c-1.582 0-2.387.169-3.128.565a3.453 3.453 0 0 0-1.448 1.448C6.169 6.753 6 7.559 6 9.14v5.718c0 1.582.169 2.387.565 3.128.337.63.818 1.111 1.448 1.448.74.396 1.546.565 3.128.565h1.718c1.582 0 2.387-.169 3.128-.565a3.453 3.453 0 0 0 1.448-1.448c.396-.74.565-1.546.565-3.128V9.14c0-1.582-.169-2.387-.565-3.128a3.453 3.453 0 0 0-1.448-1.448C15.247 4.169 14.441 4 12.86 4h-1.72.001Zm0-2h1.718c2.014 0 3.094.278 4.072.801a5.452 5.452 0 0 1 2.268 2.268c.523.978.801 2.058.801 4.072v5.718c0 2.014-.278 3.094-.801 4.072a5.452 5.452 0 0 1-2.268 2.268c-.978.523-2.058.801-4.072.801H11.14c-2.014 0-3.094-.278-4.072-.801A5.452 5.452 0 0 1 4.8 18.931c-.522-.978-.8-2.058-.8-4.072V9.14c0-2.014.278-3.094.801-4.072A5.452 5.452 0 0 1 7.07 2.801C8.047 2.278 9.127 2 11.141 2ZM11 6h2v5h-2V6Z" /></g><defs><clipPath id="a"><path fill="#fff" d="M0 0h24v24H0z"/></clipPath></defs></svg>
